images/faq-feedback.svg

<svg width="54" height="56" viewBox="0 0 54 56" fill="none" xmlns="http://www.w3.org/2000/svg">
<path d="M43.8116 43.4903H46.8528C50.4606 43.4903 53.3853 40.5656 53.3853 36.9578V7.3415C53.3853 3.73369 50.4606 0.808984 46.8528 0.808984H7.18427C3.57646 0.808984 0.651758 3.73369 0.651758 7.3415V36.9578C0.651758 40.5656 3.57646 43.4903 7.18427 43.4903H27.875L43.5747 54.6436L43.8116 54.8119V54.5213V43.4903ZM29.1751 40.3205L29.1346 40.2892H29.0833H7.18427C5.3444 40.2892 3.8529 38.7977 3.8529 36.9578V7.3415C3.8529 5.50163 5.3444 4.01013 7.18427 4.01013H46.8528C48.6927 4.01013 50.1842 5.50163 50.1842 7.3415V36.9578C50.1842 38.7977 48.6927 40.2892 46.8528 40.2892H43.6616H41.4857H41.3357V40.4392V49.719L29.1751 40.3205Z" fill="#36A6F2" stroke="#36A6F2" stroke-width="0.3"/>
<rect x="11.0244" y="10.9077" width="32.0576" height="3.91654" fill="#36A6F2"/>
<rect x="11.0244" y="20.1914" width="32.0576" height="3.91654" fill="#36A6F2"/>
<rect x="11.0244" y="29.4751" width="32.0576" height="3.91654" fill="#36A6F2"/>
</svg>

<svg width="54" height="56" fill="none" xmlns="http://www.w3.org/2000/svg"><path d="M43.812 43.49h3.04a6.533 6.533 0 006.533-6.532V7.342A6.533 6.533 0 0046.853.808H7.184A6.533 6.533 0 00.652 7.341v29.617a6.533 6.533 0 006.532 6.532h20.691l15.7 11.154.237.168V43.49zm-14.637-3.17l-.04-.03H7.184a3.331 3.331 0 01-3.331-3.332V7.342A3.331 3.331 0 017.184 4.01h39.669a3.331 3.331 0 013.331 3.332v29.616a3.331 3.331 0 01-3.331 3.331h-5.517v9.43l-12.16-9.398z" fill="#36A6F2" stroke="#36A6F2" stroke-width=".3"/><path fill="#36A6F2" d="M11.024 10.908h32.058v3.917H11.024zM11.024 20.191h32.058v3.917H11.024zM11.024 29.475h32.058v3.917H11.024z"/></svg>
